X: 1
T: Bratach Bana   [A]
R: march
Z: 1997 by John Chambers <jc:trillian.mit.edu>
M: C|
S: handwritten MS by Barbara McOwen 5/77 "from an old recording"
L: 1/4
K: A
A \
|:\
"A"EA Ae | "A"c>B c/B/A | "A"EA Ae | "A"c>B "A7"c/B/A |\
"D"d2 ef | "A"e>d cd | "E7"ee Bc/B/ | "A"A(E "E7"FE) :|
[|\
"A"c>B cE | "D"FE A>F | "A"EE "F#m"FE | "Bm"cB "E7"BE |\
"A"c>B cE | "D"FE A>B | "A"c<e "E7"Bc/B/ | "A"A(E "E7"FE) |]
[|\
"A"c>B cE | "D"FE A>F | "A"EE "F#m"FE | "Bm"cB "E7"Bc |\
"A"E>F AE | "D"FE A[BE]  | "A"c<e "E7"Bc/B/ | "A"A2 A |]
